resources/svg/regular/calendar-plus.svg

<svg xmlns="http://www.w3.org/2000/svg" fill="currentColor" stroke="none" viewBox="0 0 24 24"><path d="M8 15h3v3h2v-3h3v-2h-3v-3h-2v3H8z"/><path d="M19 4h-2V2h-2v2H9V2H7v2H5c-1.103 0-2 .897-2 2v14c0 1.103.897 2 2 2h14c1.103 0 2-.897 2-2V6c0-1.103-.897-2-2-2zm.002 16H5V8h14l.002 12z"/></svg>

<svg xmlns="http://www.w3.org/2000/svg" fill="currentColor" stroke="none" viewBox="0 0 24 24"><path d="M8 15L11 15 11 18 13 18 13 15 16 15 16 13 13 13 13 10 11 10 11 13 8 13z"/><path d="M19,4h-2V2h-2v2H9V2H7v2H5C3.897,4,3,4.897,3,6v2v12c0,1.103,0.897,2,2,2h14c1.103,0,2-0.897,2-2V8V6 C21,4.897,20.103,4,19,4z M19.002,20H5V8h14L19.002,20z"/></svg>
